icon-themes/sifr_svg/extensions/res/update/ui/onlineupdate_26.svg

<svg viewBox="0 0 24 24" xmlns="http://www.w3.org/2000/svg"><path d="m18 1v6.5625l-2.28125-2.28125c-.18818-.18811-.45344-.28129-.71875-.28125h-1v1c0 .26529.09304.53057.28125.71875l4 4 .28125.28125h.875l.28125-.28125 4-4c.18814-.18817.28122-.45344.28125-.71875v-1h-1c-.2653 0-.53058.0931-.71875.28125l-2.28125 2.28125v-6.5625zm-6 1a10 10 0 0 0 -10 10 10 10 0 0 0 10 10 10 10 0 0 0 10-10 10 10 0 0 0 -.195312-1.953125l-1.378907 1.378906-.433593.433594a8 8 0 0 1 .007812.140625 8 8 0 0 1 -8 8 8 8 0 0 1 -8-8 8 8 0 0 1 8-8 8 8 0 0 1 1 .0742188v-.0742188h2c.499552-.0000753 1.022068.1706559 1.425781.5742188l.574219.5742187v-1.7929687a10 10 0 0 0 -5-1.3554688zm1 2.5058594-1.007812.8886718.890624.7734376.117188-.1875zm-3.2050781.2324218-.2207031.765625.5800782-.0878906.345703-.2675781-.125-.4101563zm1.8710941.8066407-.158204.4101562.285157.5292969.263672.0917969-.402344.4960937.445312.0429688.472657-.4960938zm-.539063.7109375-.220703.3632812.136719.3984375.304687-.3535156zm2.138672.75-.818359.3769531-.390625.5800781-.929688.2734375-.626953.7617188.808594.4082031.429687-.8085938.708985.1289063.484375-.4511719.626953.4511719.263672.765625-.359375.2695313.925781-.2265626-.125-.3964843.527344.2675781-.666016-.859375-.082031-.5371094.121093.0058594-.589843-.5898438c-.128681-.1286598-.225293-.2717511-.308594-.4199218zm-.597656 2.3574218.398437.4414063.046875-.4414063zm2.957031.1132813.044922.2421875h.197266zm-4.375.2207031c-.991731.4225124-1.7534176.7116444-2.2871094.8691404l-.3183594 1.638672.4746094 1.126953 1.8359374.4375.826172 1.189453c.363964 1.406297.591399 2.795583.673828 4.179688l.708984.472656c.191366-.02368.383164-.054117.572266-.091797l1.046875-.917969c.259628-.991422.384241-2.087229.376953-3.302734.451219-.565448.902297-1.119315 1.353516-1.666016-.04021-.760386-.278632-1.548087-.714844-2.363281l.238281-.15039.771485 1.769531 1.353515-.494141-.396484-.777343-.191406-.191407-1.470703-1.4707029-.339844.8417969c-.385792-.021511-.838535-.107142-1.361328-.25-.880632-.253299-1.328609-.376953-1.335938-.376953-.310121-.044442-.617612-.089289-.927734-.140625-.357158-.0589728-.654204-.1669092-.888672-.3320314z" fill="#555753"/></svg>

<svg xmlns="http://www.w3.org/2000/svg" viewBox="0 0 24 24">
  <path
     style="fill:#555753"
     d="M 18 1 L 18 7.5625 L 15.71875 5.28125 C 15.53057 5.09314 15.26531 4.99996 15 5 L 14 5 L 14 6 C 14 6.26529 14.09304 6.53057 14.28125 6.71875 L 18.28125 10.71875 L 18.5625 11 L 19.4375 11 L 19.71875 10.71875 L 23.71875 6.71875 C 23.90689 6.53058 23.99997 6.26531 24 6 L 24 5 L 23 5 C 22.7347 5 22.46942 5.0931 22.28125 5.28125 L 20 7.5625 L 20 1 L 18 1 z M 12 2 A 10 10 0 0 0 2 12 A 10 10 0 0 0 12 22 A 10 10 0 0 0 22 12 A 10 10 0 0 0 21.804688 10.046875 L 20.425781 11.425781 L 19.992188 11.859375 A 8 8 0 0 1 20 12 A 8 8 0 0 1 12 20 A 8 8 0 0 1 4 12 A 8 8 0 0 1 12 4 A 8 8 0 0 1 13 4.0742188 L 13 4 L 15 4 C 15.499552 3.9999247 16.022068 4.1706559 16.425781 4.5742188 L 17 5.1484375 L 17 3.3554688 A 10 10 0 0 0 12 2 z M 13 4.5058594 L 11.992188 5.3945312 L 12.882812 6.1679688 L 13 5.9804688 L 13 4.5058594 z M 9.7949219 4.7382812 L 9.5742188 5.5039062 L 10.154297 5.4160156 L 10.5 5.1484375 L 10.375 4.7382812 L 9.7949219 4.7382812 z M 11.666016 5.5449219 L 11.507812 5.9550781 L 11.792969 6.484375 L 12.056641 6.5761719 L 11.654297 7.0722656 L 12.099609 7.1152344 L 12.572266 6.6191406 L 11.666016 5.5449219 z M 11.126953 6.2558594 L 10.90625 6.6191406 L 11.042969 7.0175781 L 11.347656 6.6640625 L 11.126953 6.2558594 z M 13.265625 7.0058594 L 12.447266 7.3828125 L 12.056641 7.9628906 L 11.126953 8.2363281 L 10.5 8.9980469 L 11.308594 9.40625 L 11.738281 8.5976562 L 12.447266 8.7265625 L 12.931641 8.2753906 L 13.558594 8.7265625 L 13.822266 9.4921875 L 13.462891 9.7617188 L 14.388672 9.5351562 L 14.263672 9.1386719 L 14.791016 9.40625 L 14.125 8.546875 L 14.042969 8.0097656 L 14.164062 8.015625 L 13.574219 7.4257812 C 13.445538 7.2971214 13.348926 7.1540301 13.265625 7.0058594 z M 12.667969 9.3632812 L 13.066406 9.8046875 L 13.113281 9.3632812 L 12.667969 9.3632812 z M 15.625 9.4765625 L 15.669922 9.71875 L 15.867188 9.71875 L 15.625 9.4765625 z M 11.25 9.6972656 C 10.258269 10.119778 9.4965824 10.40891 8.9628906 10.566406 L 8.6445312 12.205078 L 9.1191406 13.332031 L 10.955078 13.769531 L 11.78125 14.958984 C 12.145214 16.365281 12.372649 17.754567 12.455078 19.138672 L 13.164062 19.611328 C 13.355428 19.587648 13.547226 19.557211 13.736328 19.519531 L 14.783203 18.601562 C 15.042831 17.61014 15.167444 16.514333 15.160156 15.298828 C 15.611375 14.73338 16.062453 14.179513 16.513672 13.632812 C 16.473462 12.872426 16.23504 12.084725 15.798828 11.269531 L 16.037109 11.119141 L 16.808594 12.888672 L 18.162109 12.394531 L 17.765625 11.617188 L 17.574219 11.425781 L 16.103516 9.9550781 L 15.763672 10.796875 C 15.37788 10.775364 14.925137 10.689733 14.402344 10.546875 C 13.521712 10.293576 13.073735 10.169922 13.066406 10.169922 C 12.756285 10.12548 12.448794 10.080633 12.138672 10.029297 C 11.781514 9.9703242 11.484468 9.8623878 11.25 9.6972656 z "
     />
</svg>
